icon_installer/data/icons/scalable/actions/show-image-adjust-shadows-symbolic.svg

<?xml version="1.0" encoding="UTF-8"?>
<svg height="16px" viewBox="0 0 16 16" width="16px" xmlns="http://www.w3.org/2000/svg">
    <path d="m 8 0 c -4.410156 0 -8 3.589844 -8 8 s 3.589844 8 8 8 s 8 -3.589844 8 -8 s -3.589844 -8 -8 -8 z m -0.523438 2 h 0.023438 h 1 c 0.277344 0 0.5 0.222656 0.5 0.5 s -0.222656 0.5 -0.5 0.5 h -3.832031 c 0.765625 -0.511719 1.664062 -0.84375 2.628906 -0.957031 c 0.054687 -0.023438 0.113281 -0.039063 0.179687 -0.042969 z m -3.960937 2 h 6.484375 c 0.277344 0 0.5 0.222656 0.5 0.5 s -0.222656 0.5 -0.5 0.5 h -7.203125 c 0.207031 -0.359375 0.449219 -0.695312 0.71875 -1 z m -1.175781 2 h 8.160156 c 0.277344 0 0.5 0.222656 0.5 0.5 s -0.222656 0.5 -0.5 0.5 h -8.417969 c 0.058594 -0.34375 0.144531 -0.679688 0.257813 -1 z m -0.339844 2 h 8.5 c 0.277344 0 0.5 0.222656 0.5 0.5 s -0.222656 0.5 -0.5 0.5 h -8.417969 c -0.054687 -0.324219 -0.082031 -0.660156 -0.082031 -1 z m 0.339844 2 h 7.660156 c 0.277344 0 0.5 0.222656 0.5 0.5 s -0.222656 0.5 -0.5 0.5 h -7.203125 c -0.183594 -0.316406 -0.335937 -0.648438 -0.457031 -1 z m 1.175781 2 h 4.984375 c 0.277344 0 0.5 0.222656 0.5 0.5 s -0.222656 0.5 -0.5 0.5 h -3.832031 c -0.425781 -0.28125 -0.8125 -0.621094 -1.152344 -1 z m 0 0" fill="#222222"/>
</svg>

<svg xmlns="http://www.w3.org/2000/svg" width="16" height="16"><path fill="#222" d="M8 0C3.59 0 0 3.59 0 8s3.59 8 8 8 8-3.59 8-8-3.59-8-8-8zm-.523 2H8.5a.499.499 0 1 1 0 1H4.668a5.977 5.977 0 0 1 2.629-.957.527.527 0 0 1 .18-.043zM3.516 4H10a.499.499 0 1 1 0 1H2.797c.207-.36.45-.695.719-1zM2.34 6h8.16a.499.499 0 1 1 0 1H2.082a6.11 6.11 0 0 1 .258-1zM2 8h8.5a.499.499 0 1 1 0 1H2.082A6.026 6.026 0 0 1 2 8zm.34 2H10a.499.499 0 1 1 0 1H2.797a5.652 5.652 0 0 1-.457-1zm1.176 2H8.5a.499.499 0 1 1 0 1H4.668a5.99 5.99 0 0 1-1.152-1zm0 0"/></svg>
